src/utils/test.xmp
<x:xmpmeta xmlns:x="adobe:ns:meta/" x:xmptk="Public XMP Toolkit Core 3.5">
 <rdf:RDF xmlns:rdf="http://www.w3.org/1999/02/22-rdf-syntax-ns#">
  <rdf:Description rdf:about=""
    xmlns:tiff="http://ns.adobe.com/tiff/1.0/">
   <tiff:Make>Canon</tiff:Make>
   <tiff:Model>Canon EOS 20D</tiff:Model>
   <tiff:Orientation>1</tiff:Orientation>
   <tiff:ImageWidth>3504</tiff:ImageWidth>
   <tiff:ImageLength>2336</tiff:ImageLength>
  </rdf:Description>
  <rdf:Description rdf:about=""
    xmlns:exif="http://ns.adobe.com/exif/1.0/">
   <exif:ExifVersion>0221</exif:ExifVersion>
   <exif:ExposureTime>5/1</exif:ExposureTime>
   <exif:ShutterSpeedValue>-2321928/1000000</exif:ShutterSpeedValue>
   <exif:FNumber>8/1</exif:FNumber>
   <exif:ApertureValue>6/1</exif:ApertureValue>
   <exif:ExposureProgram>1</exif:ExposureProgram>
   <exif:ISOSpeedRatings>
    <rdf:Seq>
     <rdf:li>100</rdf:li>
    </rdf:Seq>
   </exif:ISOSpeedRatings>
   <exif:DateTimeOriginal>2006-12-07T23:37:30-05:00</exif:DateTimeOriginal>
   <exif:DateTimeDigitized>2006-12-07T23:37:30-05:00</exif:DateTimeDigitized>
   <exif:ExposureBiasValue>0/2</exif:ExposureBiasValue>
   <exif:MaxApertureValue>3625/1000</exif:MaxApertureValue>
   <exif:MeteringMode>5</exif:MeteringMode>
   <exif:Flash rdf:parseType="Resource">
    <exif:Fired>False</exif:Fired>
    <exif:Return>0</exif:Return>
    <exif:Mode>2</exif:Mode>
    <exif:Function>False</exif:Function>
    <exif:RedEyeMode>False</exif:RedEyeMode>
   </exif:Flash>
   <exif:FocalLength>24/1</exif:FocalLength>
   <exif:CustomRendered>0</exif:CustomRendered>
   <exif:ExposureMode>1</exif:ExposureMode>
   <exif:WhiteBalance>0</exif:WhiteBalance>
   <exif:SceneCaptureType>0</exif:SceneCaptureType>
   <exif:FocalPlaneXResolution>3504000/885</exif:FocalPlaneXResolution>
   <exif:FocalPlaneYResolution>2336000/590</exif:FocalPlaneYResolution>
   <exif:FocalPlaneResolutionUnit>2</exif:FocalPlaneResolutionUnit>
  </rdf:Description>
  <rdf:Description rdf:about=""
    xmlns:xap="http://ns.adobe.com/xap/1.0/">
   <xap:ModifyDate>2006-12-07T23:37:30-05:00</xap:ModifyDate>
   <xap:MetadataDate>2007-10-12T10:46:36-04:00</xap:MetadataDate>
  </rdf:Description>
  <rdf:Description rdf:about=""
    xmlns:aux="http://ns.adobe.com/exif/1.0/aux/">
   <aux:SerialNumber>420103070</aux:SerialNumber>
   <aux:LensInfo>24/1 85/1 0/0 0/0</aux:LensInfo>
   <aux:Lens>24.0-85.0 mm</aux:Lens>
   <aux:ImageNumber>185</aux:ImageNumber>
   <aux:FlashCompensation>-2/1</aux:FlashCompensation>
   <aux:OwnerName>unknown</aux:OwnerName>
   <aux:Firmware>1.1.0</aux:Firmware>
  </rdf:Description>
  <rdf:Description rdf:about=""
    xmlns:crs="http://ns.adobe.com/camera-raw-settings/1.0/">
   <crs:AlreadyApplied>False</crs:AlreadyApplied>
  </rdf:Description>
  <rdf:Description rdf:about=""
    xmlns:dc="http://purl.org/dc/elements/1.1/">
   <dc:creator>
    <rdf:Seq>
     <rdf:li>unknown</rdf:li>
    </rdf:Seq>
   </dc:creator>
   <dc:subject>
    <rdf:Bag>
     <rdf:li>choir</rdf:li>
     <rdf:li>night</rdf:li>
     <rdf:li>ontario</rdf:li>
     <rdf:li>ottawa</rdf:li>
     <rdf:li>parliament of canada</rdf:li>
    </rdf:Bag>
   </dc:subject>
  </rdf:Description>
  <rdf:Description rdf:about=""
    xmlns:crss="http://ns.adobe.com/camera-raw-saved-settings/1.0/"
    xmlns:crs="http://ns.adobe.com/camera-raw-settings/1.0/">
   <crss:SavedSettings>
    <rdf:Bag>
     <rdf:li rdf:parseType="Resource">
      <crss:Name>16/12/06 9:08:59 AM: Import</crss:Name>
      <crss:Type>Snapshot</crss:Type>
      <crss:Parameters rdf:parseType="Resource">
       <crs:WhiteBalance>As Shot</crs:WhiteBalance>
       <crs:Exposure>0.00</crs:Exposure>
       <crs:Shadows>5</crs:Shadows>
       <crs:Brightness>+50</crs:Brightness>
       <crs:Contrast>+25</crs:Contrast>
       <crs:Saturation>0</crs:Saturation>
       <crs:Sharpness>25</crs:Sharpness>
       <crs:LuminanceSmoothing>0</crs:LuminanceSmoothing>
       <crs:ColorNoiseReduction>25</crs:ColorNoiseReduction>
       <crs:ChromaticAberrationR>0</crs:ChromaticAberrationR>
       <crs:ChromaticAberrationB>0</crs:ChromaticAberrationB>
       <crs:VignetteAmount>0</crs:VignetteAmount>
       <crs:ShadowTint>0</crs:ShadowTint>
       <crs:RedHue>0</crs:RedHue>
       <crs:RedSaturation>0</crs:RedSaturation>
       <crs:GreenHue>0</crs:GreenHue>
       <crs:GreenSaturation>0</crs:GreenSaturation>
       <crs:BlueHue>0</crs:BlueHue>
       <crs:BlueSaturation>0</crs:BlueSaturation>
       <crs:FillLight>0</crs:FillLight>
       <crs:Vibrance>0</crs:Vibrance>
       <crs:HighlightRecovery>0</crs:HighlightRecovery>
       <crs:Clarity>0</crs:Clarity>
       <crs:Defringe>0</crs:Defringe>
       <crs:HueAdjustmentRed>0</crs:HueAdjustmentRed>
       <crs:HueAdjustmentOrange>0</crs:HueAdjustmentOrange>
       <crs:HueAdjustmentYellow>0</crs:HueAdjustmentYellow>
       <crs:HueAdjustmentGreen>0</crs:HueAdjustmentGreen>
       <crs:HueAdjustmentAqua>0</crs:HueAdjustmentAqua>
       <crs:HueAdjustmentBlue>0</crs:HueAdjustmentBlue>
       <crs:HueAdjustmentPurple>0</crs:HueAdjustmentPurple>
       <crs:HueAdjustmentMagenta>0</crs:HueAdjustmentMagenta>
       <crs:SaturationAdjustmentRed>0</crs:SaturationAdjustmentRed>
       <crs:SaturationAdjustmentOrange>0</crs:SaturationAdjustmentOrange>
       <crs:SaturationAdjustmentYellow>0</crs:SaturationAdjustmentYellow>
       <crs:SaturationAdjustmentGreen>0</crs:SaturationAdjustmentGreen>
       <crs:SaturationAdjustmentAqua>0</crs:SaturationAdjustmentAqua>
       <crs:SaturationAdjustmentBlue>0</crs:SaturationAdjustmentBlue>
       <crs:SaturationAdjustmentPurple>0</crs:SaturationAdjustmentPurple>
       <crs:SaturationAdjustmentMagenta>0</crs:SaturationAdjustmentMagenta>
       <crs:LuminanceAdjustmentRed>0</crs:LuminanceAdjustmentRed>
       <crs:LuminanceAdjustmentOrange>0</crs:LuminanceAdjustmentOrange>
       <crs:LuminanceAdjustmentYellow>0</crs:LuminanceAdjustmentYellow>
       <crs:LuminanceAdjustmentGreen>0</crs:LuminanceAdjustmentGreen>
       <crs:LuminanceAdjustmentAqua>0</crs:LuminanceAdjustmentAqua>
       <crs:LuminanceAdjustmentBlue>0</crs:LuminanceAdjustmentBlue>
       <crs:LuminanceAdjustmentPurple>0</crs:LuminanceAdjustmentPurple>
       <crs:LuminanceAdjustmentMagenta>0</crs:LuminanceAdjustmentMagenta>
       <crs:SplitToningShadowHue>0</crs:SplitToningShadowHue>
       <crs:SplitToningShadowSaturation>0</crs:SplitToningShadowSaturation>
       <crs:SplitToningHighlightHue>0</crs:SplitToningHighlightHue>
       <crs:SplitToningHighlightSaturation>0</crs:SplitToningHighlightSaturation>
       <crs:SplitToningBalance>0</crs:SplitToningBalance>
       <crs:ParametricShadows>0</crs:ParametricShadows>
       <crs:ParametricDarks>0</crs:ParametricDarks>
       <crs:ParametricLights>0</crs:ParametricLights>
       <crs:ParametricHighlights>0</crs:ParametricHighlights>
       <crs:ParametricShadowSplit>25</crs:ParametricShadowSplit>
       <crs:ParametricMidtoneSplit>50</crs:ParametricMidtoneSplit>
       <crs:ParametricHighlightSplit>75</crs:ParametricHighlightSplit>
       <crs:SharpenRadius>+1.0</crs:SharpenRadius>
       <crs:SharpenDetail>25</crs:SharpenDetail>
       <crs:SharpenEdgeMasking>0</crs:SharpenEdgeMasking>
       <crs:ConvertToGrayscale>False</crs:ConvertToGrayscale>
       <crs:ToneCurveName>Medium Contrast</crs:ToneCurveName>
       <crs:ToneCurve>
        <rdf:Seq>
         <rdf:li>0, 0</rdf:li>
         <rdf:li>32, 22</rdf:li>
         <rdf:li>64, 56</rdf:li>
         <rdf:li>128, 128</rdf:li>
         <rdf:li>192, 196</rdf:li>
         <rdf:li>255, 255</rdf:li>
        </rdf:Seq>
       </crs:ToneCurve>
      </crss:Parameters>
     </rdf:li>
    </rdf:Bag>
   </crss:SavedSettings>
  </rdf:Description>
  <rdf:Description rdf:about=""
    xmlns:lr="http://ns.adobe.com/lightroom/1.0/">
   <lr:hierarchicalSubject>
    <rdf:Bag>
     <rdf:li>choir</rdf:li>
     <rdf:li>night</rdf:li>
     <rdf:li>ontario|ottawa</rdf:li>
     <rdf:li>ontario|ottawa|parliament of canada</rdf:li>
    </rdf:Bag>
   </lr:hierarchicalSubject>
  </rdf:Description>
 </rdf:RDF>
</x:xmpmeta>
